img/features/features-icon2.svg

<svg width="70" height="70" viewBox="0 0 70 70" fill="none" xmlns="http://www.w3.org/2000/svg">
<rect width="70" height="70" rx="15" fill="#149211" fill-opacity="0.28"/>
<path d="M34.5729 46.9583C34.4521 46.9581 34.3323 46.937 34.2187 46.8958C33.9997 46.8156 33.814 46.6642 33.6912 46.4659C33.5684 46.2676 33.5158 46.0338 33.5417 45.802L34.3437 38.4166H28.2083C28.0191 38.4169 27.8333 38.3656 27.6711 38.2683C27.5088 38.171 27.376 38.0313 27.2872 37.8642C27.1983 37.6972 27.1566 37.509 27.1665 37.3201C27.1765 37.1311 27.2378 36.9484 27.3437 36.7916L35.5625 24.4999C35.6925 24.3076 35.883 24.1642 36.1038 24.0924C36.3246 24.0207 36.563 24.0248 36.7812 24.1041C36.991 24.182 37.1701 24.3253 37.2921 24.5129C37.414 24.7006 37.4723 24.9224 37.4583 25.1458L36.6562 32.5833H42.7917C42.9809 32.583 43.1666 32.6343 43.3289 32.7316C43.4912 32.8289 43.624 32.9686 43.7128 33.1357C43.8017 33.3027 43.8434 33.4908 43.8335 33.6798C43.8235 33.8688 43.7622 34.0515 43.6562 34.2083L35.4375 46.4999C35.3419 46.6413 35.2131 46.757 35.0624 46.8369C34.9116 46.9169 34.7435 46.9585 34.5729 46.9583ZM30.1562 36.3333H35.5C35.6454 36.3336 35.789 36.3644 35.9218 36.4236C36.0545 36.4828 36.1734 36.5691 36.2708 36.677C36.3691 36.7864 36.4432 36.9153 36.488 37.0554C36.5329 37.1954 36.5477 37.3434 36.5312 37.4895L36.0625 41.8124L40.8437 34.6666H35.5C35.353 34.6675 35.2075 34.6373 35.073 34.5779C34.9385 34.5185 34.8181 34.4314 34.7198 34.3222C34.6214 34.213 34.5472 34.0842 34.5021 33.9443C34.4571 33.8043 34.4422 33.6565 34.4583 33.5104L34.9271 29.1874L30.1562 36.3333Z" fill="#149211"/>
</svg>

<svg width="70" height="70" fill="none" xmlns="http://www.w3.org/2000/svg"><rect width="70" height="70" rx="15" fill="#149211" fill-opacity=".28"/><path d="M34.573 46.958a1.042 1.042 0 01-1.031-1.156l.802-7.385h-6.136a1.041 1.041 0 01-.864-1.625L35.562 24.5a1.042 1.042 0 011.22-.396 1.042 1.042 0 01.676 1.042l-.802 7.437h6.136a1.042 1.042 0 01.864 1.625L35.438 46.5a1.042 1.042 0 01-.865.458zm-4.417-10.625H35.5a1.041 1.041 0 011.031 1.157l-.468 4.322 4.78-7.145H35.5a1.041 1.041 0 01-1.042-1.157l.47-4.323-4.772 7.146z" fill="#149211"/></svg>
